icons/sodium_free_fill.svg

<svg width="48" height="48" viewBox="0 0 48 48" fill="none" xmlns="http://www.w3.org/2000/svg">
<path d="M24 13C21.2386 13 19 15.2386 19 18V18.1429C19 18.6162 19.3838 19 19.8571 19H28.1429C28.6162 19 29 18.6162 29 18.1429V18C29 15.2386 26.7614 13 24 13Z" fill="black"/>
<path d="M27 11C27 11.5523 26.5523 12 26 12C25.4477 12 25 11.5523 25 11C25 10.4477 25.4477 10 26 10C26.5523 10 27 10.4477 27 11Z" fill="black"/>
<path d="M29 11C29.5523 11 30 10.5523 30 10C30 9.44772 29.5523 9 29 9C28.4477 9 28 9.44772 28 10C28 10.5523 28.4477 11 29 11Z" fill="black"/>
<path d="M31 13C31 13.5523 30.5523 14 30 14C29.4477 14 29 13.5523 29 13C29 12.4477 29.4477 12 30 12C30.5523 12 31 12.4477 31 13Z" fill="black"/>
<path fill-rule="evenodd" clip-rule="evenodd" d="M44 24C44 35.0457 35.0457 44 24 44C12.9543 44 4 35.0457 4 24C4 12.9543 12.9543 4 24 4C35.0457 4 44 12.9543 44 24ZM36.0013 37.4155C32.8166 40.2664 28.6107 42 24 42C14.0589 42 6 33.9411 6 24C6 19.262 7.83061 14.9515 10.8231 11.7373L14.7929 15.7071C15.1834 16.0976 15.8166 16.0976 16.2071 15.7071C16.5976 15.3166 16.5976 14.6834 16.2071 14.2929L12.265 10.3508C15.4161 7.63912 19.5166 6 24 6C33.9411 6 42 14.0589 42 24C42 28.6107 40.2664 32.8166 37.4155 36.0013L30.2903 28.8761L29.8152 22.7674C29.6937 21.2055 28.3909 20 26.8243 20H21.1757C19.6091 20 18.3062 21.2055 18.1847 22.7674L17.2514 34.7674C17.1158 36.5106 18.4938 38 20.2424 38H27.7576C29.5061 38 30.8841 36.5107 30.7485 34.7674L30.5289 31.9431L36.0013 37.4155ZM22 23C22.5523 23 23 23.4477 23 24L23 33C23 33.5523 22.5523 34 22 34C21.4477 34 21 33.5523 21 33L21 24C21 23.4477 21.4477 23 22 23ZM27 24C27 23.4477 26.5523 23 26 23C25.4477 23 25 23.4477 25 24L25 33C25 33.5523 25.4477 34 26 34C26.5523 34 27 33.5523 27 33L27 24Z" fill="black"/>
</svg>

<svg
  xmlns="http://www.w3.org/2000/svg"
  width="24"
  height="24"
  viewBox="0 0 24 24"
  fill="none"
  stroke="currentColor"
  stroke-width="2"
  stroke-linecap="round"
  stroke-linejoin="round"
>
  <path d="M24 13a5 5 0 0 0-5 5v.143c0 .473.384.857.857.857h8.286a.857.857 0 0 0 .857-.857V18a5 5 0 0 0-5-5" />
  <path d="M27 11a1 1 0 1 1-2 0 1 1 0 0 1 2 0" />
  <path d="M29 11a1 1 0 1 0 0-2 1 1 0 0 0 0 2" />
  <path d="M31 13a1 1 0 1 1-2 0 1 1 0 0 1 2 0" />
  <path
    fill-rule="evenodd"
    d="M44 24c0 11.046-8.954 20-20 20S4 35.046 4 24 12.954 4 24 4s20 8.954 20 20m-7.999 13.416A17.93 17.93 0 0 1 24 42c-9.941 0-18-8.059-18-18 0-4.738 1.83-9.048 4.823-12.263l3.97 3.97a1 1 0 0 0 1.414-1.414l-3.942-3.942A17.93 17.93 0 0 1 24 6c9.941 0 18 8.059 18 18 0 4.61-1.734 8.817-4.584 12.001l-7.126-7.125-.475-6.109A3 3 0 0 0 26.825 20h-5.65a3 3 0 0 0-2.99 2.767l-.934 12A3 3 0 0 0 20.242 38h7.516a3 3 0 0 0 2.99-3.233l-.22-2.824zM22 23a1 1 0 0 1 1 1v9a1 1 0 1 1-2 0v-9a1 1 0 0 1 1-1m5 1a1 1 0 1 0-2 0v9a1 1 0 1 0 2 0z"
    clip-rule="evenodd"
  />
</svg>
